apps/www/public/images/logos/frameworks/turbopack.svg

<svg width="62" height="62" viewBox="0 0 62 62" fill="none" xmlns="http://www.w3.org/2000/svg">
<path d="M18.275 15.2562L31.0001 7.98438L50.9026 19.3561V25.088L31.0001 13.7138L18.2999 20.9707L18.275 15.2562Z" fill="#7E7E7E"/>
<path d="M16.0733 39.2163L28.7611 46.4658L23.7979 49.3591L11.0977 42.1022V19.3561L16.0409 16.5325L16.0683 22.2544L16.0733 22.2569V39.2163Z" fill="#7E7E7E"/>
<path d="M45.927 24.8243V39.2163L31.0001 47.7445V47.752L26.0419 50.6428L31.0001 53.4764L50.9026 42.1022V27.6679L45.927 24.8243Z" fill="#7E7E7E"/>
<path d="M31.0002 16.2938L19.4393 22.8989L32.1296 30.1508L43.688 23.5432L31.0002 16.2938Z" fill="#7E7E7E"/>
<path d="M18.3124 24.8344V37.9153L31.0002 45.1672V32.0839L18.3124 24.8344Z" fill="#7E7E7E"/>
</svg>

<svg xmlns="http://www.w3.org/2000/svg" width="62" height="62" fill="none" viewBox="0 0 62 62"><path fill="#7e7e7e" d="M18.275 15.256 31 7.984l19.903 11.372v5.732L31 13.714 18.3 20.97zM16.073 39.216l12.688 7.25-4.963 2.893-12.7-7.257V19.356l4.943-2.824.027 5.722.005.003zM45.927 24.824v14.392L31 47.745v.007l-4.958 2.89L31 53.477l19.903-11.374V27.668z"/><path fill="#7e7e7e" d="m31 16.294-11.56 6.605 12.69 7.252 11.558-6.608zM18.312 24.834v13.081L31 45.167V32.084z"/></svg>
